X: 37929
T: SP40
R: jig
M: 6/8
K: Cmajor
cde cAG|E2 E GAB|cde cea|gec d2 e|
cde cAG|E2 E GAB|c2 a ged|1 c3 c2 B:|2 c3 c2 B||
A3 BAB|c3 cea|g2 e edc|ded dcB|
A3 BAB|c3 cea|g2 e ded|c3 c2 B|
A3 BAB|c3 cea|g2 e edc|ded dcB|
A3 BAB|c3 cea|g2 e dcB|c3 c2 B||

